icons/svg/window.svg

<svg width="24" height="24" viewBox="0 0 24 24" fill="none" xmlns="http://www.w3.org/2000/svg">
<path d="M3.75 7.75C3.75 5.54086 5.54086 3.75 7.75 3.75H16.25C18.4591 3.75 20.25 5.54086 20.25 7.75V16.25C20.25 18.4591 18.4591 20.25 16.25 20.25H7.75C5.54086 20.25 3.75 18.4591 3.75 16.25V7.75Z" stroke="currentColor" stroke-width="1.5" stroke-linecap="round" stroke-linejoin="round"/>
<path d="M3.75 8.25H20.25" stroke="currentColor" stroke-width="1.5" stroke-linecap="round" stroke-linejoin="round"/>
</svg>

<svg xmlns="http://www.w3.org/2000/svg" width="24" height="24" fill="none" viewBox="0 0 24 24"><path stroke="currentColor" stroke-linecap="round" stroke-linejoin="round" stroke-width="1.5" d="M3.75 7.75a4 4 0 0 1 4-4h8.5a4 4 0 0 1 4 4v8.5a4 4 0 0 1-4 4h-8.5a4 4 0 0 1-4-4zm0 .5h16.5"/></svg>
